img/taxi-offers-img-5.svg

<svg 
 xmlns="http://www.w3.org/2000/svg"
 xmlns:xlink="http://www.w3.org/1999/xlink"
 width="40px" height="40px">
<path fill-rule="evenodd"  fill="rgb(42, 42, 42)"
 d="M19.264,-0.003 C29.098,-0.152 35.726,5.592 38.542,12.442 C40.460,17.108 40.466,23.039 38.497,27.675 C36.248,32.971 31.861,37.202 26.133,39.011 C25.037,39.358 23.885,39.553 22.654,39.787 C22.041,39.838 21.428,39.890 20.815,39.941 C20.009,40.076 18.714,39.950 18.023,39.831 C17.491,39.764 16.959,39.698 16.427,39.632 C14.910,39.297 13.513,38.898 12.240,38.347 C6.728,35.964 2.800,31.756 0.917,25.748 C0.230,23.560 -0.327,20.200 0.208,17.357 C0.455,16.041 0.630,14.751 1.072,13.615 C3.416,7.583 7.218,3.518 13.237,1.171 C14.426,0.707 15.735,0.474 17.114,0.197 C17.831,0.131 18.547,0.064 19.264,-0.003 ZM19.796,1.769 C19.087,1.821 18.377,1.873 17.668,1.924 C16.321,2.164 15.050,2.388 13.902,2.832 C8.587,4.888 4.941,8.522 2.889,13.836 C2.483,14.888 2.258,16.058 2.025,17.268 C1.541,19.779 1.915,22.864 2.534,24.907 C4.181,30.339 7.613,34.402 12.550,36.532 C13.890,37.109 15.309,37.559 16.937,37.905 C17.558,37.970 18.178,38.037 18.799,38.103 C19.286,38.126 19.773,38.148 20.261,38.170 C20.704,38.148 21.147,38.126 21.590,38.103 C22.707,37.927 23.770,37.842 24.759,37.550 C30.498,35.852 34.630,32.229 36.835,27.010 C38.635,22.752 38.646,17.394 36.880,13.105 C34.321,6.891 28.504,1.830 19.796,1.769 ZM26.177,9.430 C26.888,9.408 27.480,9.945 27.174,10.670 C26.539,11.652 25.904,12.633 25.269,13.615 C22.499,17.843 19.729,22.074 16.959,26.302 C16.125,27.593 15.290,28.885 14.455,30.177 C14.231,30.473 13.632,30.634 13.237,30.376 C12.850,30.125 12.742,29.507 13.015,29.070 C13.850,27.793 14.685,26.516 15.519,25.239 C18.000,21.453 20.483,17.667 22.964,13.881 C23.599,12.906 24.235,11.932 24.870,10.958 C25.135,10.537 25.405,9.876 25.800,9.585 C25.926,9.533 26.052,9.481 26.177,9.430 ZM14.744,10.803 C17.554,10.765 19.777,13.250 18.466,16.072 C17.931,17.225 16.900,17.945 15.430,18.176 C12.929,18.569 10.745,15.757 11.597,13.305 C11.977,12.211 12.792,11.415 13.857,11.002 C14.153,10.936 14.448,10.869 14.744,10.803 ZM14.987,12.574 C14.118,12.914 13.684,12.912 13.325,13.792 C12.785,15.117 13.980,16.634 15.386,16.382 C17.658,15.975 17.517,12.554 14.987,12.574 ZM24.471,21.984 C27.071,21.949 29.296,24.310 28.194,27.033 C27.682,28.296 26.652,29.112 25.114,29.358 C22.470,29.781 20.291,26.870 21.280,24.353 C21.673,23.354 22.448,22.597 23.452,22.206 C23.791,22.132 24.131,22.058 24.471,21.984 ZM24.471,23.778 C23.695,24.124 23.152,24.298 22.898,25.151 C22.500,26.483 23.722,27.833 25.069,27.564 C27.310,27.117 27.162,23.733 24.471,23.778 Z"/>
</svg>

<?xml version="1.0" encoding="utf-8"?>
<!-- Generator: Adobe Illustrator 23.0.1, SVG Export Plug-In . SVG Version: 6.00 Build 0)  -->
<svg version="1.1" id="Слой_1" xmlns="http://www.w3.org/2000/svg" xmlns:xlink="http://www.w3.org/1999/xlink" x="0px" y="0px"
	 viewBox="0 0 40 40" style="enable-background:new 0 0 40 40;" xml:space="preserve">
<style type="text/css">
	.st0{fill-rule:evenodd;clip-rule:evenodd;fill:#2A2A2A;}
	.st1{fill-rule:evenodd;clip-rule:evenodd;fill:#5B970D;}
</style>
<path class="st0" d="M19.3,0c9.8-0.1,16.5,5.6,19.3,12.4c1.9,4.7,1.9,10.6,0,15.2C36.2,33,31.9,37.2,26.1,39
	c-1.1,0.3-2.2,0.5-3.5,0.8c-0.6,0.1-1.2,0.1-1.8,0.2c-0.8,0.1-2.1,0-2.8-0.1c-0.5-0.1-1.1-0.1-1.6-0.2c-1.5-0.3-2.9-0.7-4.2-1.3
	C6.7,36,2.8,31.8,0.9,25.7c-0.7-2.2-1.2-5.5-0.7-8.4c0.2-1.3,0.4-2.6,0.9-3.7c2.3-6,6.1-10.1,12.2-12.4c1.2-0.5,2.5-0.7,3.9-1
	C17.8,0.1,18.5,0.1,19.3,0z M19.8,1.8c-0.7,0.1-1.4,0.1-2.1,0.2c-1.3,0.2-2.6,0.5-3.8,0.9c-5.3,2.1-9,5.7-11,11
	c-0.4,1.1-0.6,2.2-0.9,3.4c-0.5,2.5-0.1,5.6,0.5,7.6c1.6,5.4,5.1,9.5,10,11.6c1.3,0.6,2.8,1,4.4,1.4c0.6,0.1,1.2,0.1,1.9,0.2
	c0.5,0,1,0,1.5,0.1c0.4,0,0.9,0,1.3-0.1c1.1-0.2,2.2-0.3,3.2-0.6c5.7-1.7,9.9-5.3,12.1-10.5c1.8-4.3,1.8-9.6,0-13.9
	C34.3,6.9,28.5,1.8,19.8,1.8z"/>
<path class="st1" d="M26.2,9.4c0.7,0,1.3,0.5,1,1.2c-0.6,1-1.3,2-1.9,2.9c-2.8,4.2-5.5,8.5-8.3,12.7c-0.8,1.3-1.7,2.6-2.5,3.9
	c-0.2,0.3-0.8,0.5-1.2,0.2c-0.4-0.3-0.5-0.9-0.2-1.3c0.8-1.3,1.7-2.6,2.5-3.8c2.5-3.8,5-7.6,7.4-11.4c0.6-1,1.3-1.9,1.9-2.9
	c0.3-0.4,0.5-1.1,0.9-1.4C25.9,9.5,26.1,9.5,26.2,9.4z M14.7,10.8c2.8,0,5,2.4,3.7,5.3c-0.5,1.2-1.6,1.9-3,2.1
	c-2.5,0.4-4.7-2.4-3.8-4.9c0.4-1.1,1.2-1.9,2.3-2.3C14.2,10.9,14.4,10.9,14.7,10.8z M15,12.6c-0.9,0.3-1.3,0.3-1.7,1.2
	c-0.5,1.3,0.7,2.8,2.1,2.6C17.7,16,17.5,12.6,15,12.6z M24.5,22c2.6,0,4.8,2.3,3.7,5c-0.5,1.3-1.5,2.1-3.1,2.3
	c-2.6,0.4-4.8-2.5-3.8-5c0.4-1,1.2-1.8,2.2-2.1C23.8,22.1,24.1,22.1,24.5,22z M24.5,23.8c-0.8,0.3-1.3,0.5-1.6,1.4
	c-0.4,1.3,0.8,2.7,2.2,2.4C27.3,27.1,27.2,23.7,24.5,23.8z"/>
</svg>
